docs/img/type/star-1.svg

<svg width="462" height="462" fill="none" xmlns="http://www.w3.org/2000/svg"><path d="M304.735 224.65c12.067 7.619 10.43 25.702-2.809 31.031l-36.345 14.629a22.505 22.505 0 00-10.34 8.422l-16.018 24.11c-8.156 12.277-26.908 9.589-31.286-4.486l-7.77-24.978a22.508 22.508 0 00-8.965-12.012l-33.174-22.215c-12.172-8.15-9.541-26.755 4.414-31.211l35.251-11.256a22.5 22.5 0 0012.805-10.472l13.055-23.401c7.386-13.238 26.964-11.464 31.849 2.887l9.493 27.885a22.494 22.494 0 009.287 11.774l30.553 19.293z" stroke="#fff" stroke-opacity=".3" stroke-width="5"/><path d="M281.214 230.569c5.171 3.266 4.47 11.015-1.204 13.299L251.36 255.4a12.506 12.506 0 00-5.745 4.679l-13.721 20.653c-3.495 5.261-11.532 4.109-13.408-1.923l-6.875-22.099a12.497 12.497 0 00-4.98-6.673l-26.413-17.687c-5.216-3.493-4.088-11.467 1.892-13.377l28.625-9.14a12.5 12.5 0 007.114-5.818l11.718-21.003c3.165-5.673 11.556-4.913 13.649 1.237l8.258 24.258a12.498 12.498 0 005.159 6.541l24.581 15.521z" stroke="#fff" stroke-opacity=".6" stroke-width="5"/><path d="M332.171 227.791c12.067 7.62 10.43 25.702-2.809 31.031l-56.104 22.583a22.494 22.494 0 00-10.34 8.422l-26.79 40.324c-8.156 12.277-26.908 9.588-31.286-4.486l-13.408-43.101a22.504 22.504 0 00-8.965-12.012l-51.704-34.623c-12.171-8.151-9.54-26.756 4.414-31.212l55.995-17.88a22.5 22.5 0 0012.805-10.471l22.843-40.945c7.385-13.238 26.964-11.464 31.849 2.887l16.115 47.338a22.501 22.501 0 009.286 11.774l48.099 30.371z" stroke="#fff" stroke-opacity=".2" stroke-width="5"/></svg>

<svg width="462" height="462" viewBox="0 0 462 462" fill="none" xmlns="http://www.w3.org/2000/svg">
<path d="M304.735 224.65C316.802 232.269 315.165 250.352 301.926 255.681L265.581 270.31C261.363 272.008 257.758 274.944 255.241 278.732L239.223 302.842C231.067 315.119 212.315 312.431 207.937 298.356L200.167 273.378C198.639 268.468 195.475 264.228 191.202 261.366L158.028 239.151C145.856 231.001 148.487 212.396 162.442 207.94L197.693 196.684C203.136 194.946 207.714 191.202 210.498 186.212L223.553 162.811C230.939 149.573 250.517 151.347 255.402 165.698L264.895 193.583C266.553 198.455 269.831 202.61 274.182 205.357L304.735 224.65Z" stroke="white" stroke-opacity="0.3" stroke-width="5"/>
<path d="M281.214 230.569C286.385 233.835 285.684 241.584 280.01 243.868L251.36 255.4C249.016 256.344 247.013 257.975 245.615 260.079L231.894 280.732C228.399 285.993 220.362 284.841 218.486 278.809L211.611 256.71C210.763 253.982 209.005 251.627 206.631 250.037L180.218 232.35C175.002 228.857 176.13 220.883 182.11 218.973L210.735 209.833C213.759 208.867 216.302 206.788 217.849 204.015L229.567 183.012C232.732 177.339 241.123 178.099 243.216 184.249L251.474 208.507C252.395 211.213 254.216 213.522 256.633 215.048L281.214 230.569Z" stroke="white" stroke-opacity="0.6" stroke-width="5"/>
<path d="M332.171 227.791C344.238 235.411 342.601 253.493 329.362 258.822L273.258 281.405C269.039 283.103 265.434 286.039 262.918 289.827L236.128 330.151C227.972 342.428 209.22 339.739 204.842 325.665L191.434 282.564C189.906 277.653 186.742 273.414 182.469 270.552L130.765 235.929C118.594 227.778 121.225 209.173 135.179 204.717L191.174 186.837C196.617 185.099 201.195 181.356 203.979 176.366L226.822 135.421C234.207 122.183 253.786 123.957 258.671 138.308L274.786 185.646C276.444 190.517 279.722 194.673 284.072 197.42L332.171 227.791Z" stroke="white" stroke-opacity="0.2" stroke-width="5"/>
</svg>
